X: 39410
T: Tap The Barrel
R: jig
M: 6/8
K: Gmajor
f2d g2e|fed cAF|G2g gab|afd d2 e|
fdA Age|f2d cAG|Bcd cAF|1 AGG Gge:|2 AGG GAc||
B2 d AFD|DDD AFD|DBG AFA|DGG GAc|
B2 d AFD|DDD AFD|Bcd cAF|1 AGG GAc:|2 AGG Gge||

